proprietary/assets/icons/infrastructuur-en-transport/slagboom-halfopen.svg

<svg height="64" viewBox="0 0 64 64" width="64" xmlns="http://www.w3.org/2000/svg"><path d="m0 0h64v64h-64z" fill="none"/><path d="m61.8279 11.384-3-5.1961c-.2775-.4807-.8893-.6413-1.366-.366l-41.8584 24.1661c-.0597-.0475-.246-.2415.0326-.5611l2.3639-2.4269h-12c-1.6569 0-3 1.3431-3 3v31h18v-24.8893l40.4619-23.3607c.4782-.2761.6421-.8877.366-1.366zm-49.8279 30.7415c-2.8307 0-5.1255-2.2948-5.1255-5.1255s2.2947-5.1255 5.1255-5.1255 5.1255 2.2948 5.1255 5.1255-2.2948 5.1255-5.1255 5.1255zm12.9548-10.6076-2-3.4641 6.9282-4 2 3.4641zm13.8564-8-2-3.4641 6.9282-4 2 3.4641zm13.8564-8-2-3.4641 6.9282-4 2 3.4641zm-37.6826 21.4821c0 1.6486-1.3364 2.985-2.985 2.985s-2.985-1.3364-2.985-2.985 1.3364-2.985 2.985-2.985 2.985 1.3364 2.985 2.985z"/></svg>

<?xml version="1.0" encoding="utf-8"?>
<!-- Generator: Adobe Illustrator 18.1.1, SVG Export Plug-In . SVG Version: 6.00 Build 0)  -->
<svg version="1.2" baseProfile="tiny" xmlns="http://www.w3.org/2000/svg" xmlns:xlink="http://www.w3.org/1999/xlink" x="0px"
	 y="0px" width="64px" height="64px" viewBox="0 0 64 64" xml:space="preserve">
<g id="Box">
	<rect fill="none" width="64" height="64"/>
</g>
<g id="Icon">
	<g>
		<path d="M61.8279,11.384l-3-5.1961c-0.2775-0.4807-0.8893-0.6413-1.366-0.366L15.6035,29.988
			c-0.0597-0.0475-0.246-0.2415,0.0326-0.5611L18,27H6c-1.6569,0-3,1.3431-3,3v31h18V36.1107L61.4619,12.75
			C61.9401,12.4739,62.104,11.8623,61.8279,11.384z M12,42.1255c-2.8307,0-5.1255-2.2948-5.1255-5.1255
			c0-2.8307,2.2947-5.1255,5.1255-5.1255S17.1255,34.1693,17.1255,37C17.1255,39.8307,14.8307,42.1255,12,42.1255z M24.9548,31.5179
			l-2-3.4641l6.9282-4l2,3.4641L24.9548,31.5179z M38.8112,23.5179l-2-3.4641l6.9282-4l2,3.4641L38.8112,23.5179z M52.6676,15.5179
			l-2-3.4641l6.9282-4l2,3.4641L52.6676,15.5179z M14.985,37c0,1.6486-1.3364,2.985-2.985,2.985S9.015,38.6486,9.015,37
			c0-1.6486,1.3364-2.985,2.985-2.985S14.985,35.3514,14.985,37z"/>
	</g>
</g>
</svg>
